svg/hours_12.svg

<svg xmlns="http://www.w3.org/2000/svg" viewBox="0 0 24 24"><path d="M13 2v2c4 .5 7 3.8 7 7.9 0 3.2-1.9 6-4.7 7.3L13 17v5h5l-1.2-1.2c3.1-1.7 5.2-5 5.2-8.8 0-5.2-4-9.5-9-10m-2 0c-1.9.2-3.8 1-5.3 2.2l1.4 1.4C8.2 4.8 9.6 4.2 11 4zM4.2 5.7C3 7.2 2.2 9.1 2 11h2c.2-1.4.8-2.8 1.6-3.9zM2 13c.2 1.9 1 3.8 2.2 5.3l1.4-1.4C4.8 15.8 4.2 14.4 4 13zm5.1 5.4-1.4 1.4c1.5 1.2 3.4 2 5.3 2.2v-2c-1.4-.2-2.8-.8-3.9-1.6M12 8v2h3v1h-1c-1.1 0-2 .9-2 2v3h5v-2h-3v-1h1c1.1 0 2-.9 2-2v-1c0-1.1-.9-2-2-2zM7 8v2h1v6h2V8z"/></svg>

<svg xmlns="http://www.w3.org/2000/svg" id="mdi-hours-12" viewBox="0 0 24 24"><path d="M13 2V4C17 4.5 20 7.8 20 11.9C20 15.1 18.1 17.9 15.3 19.2L13 17V22H18L16.8 20.8C19.9 19.1 22 15.8 22 12C22 6.8 18 2.5 13 2M11 2C9.1 2.2 7.2 3 5.7 4.2L7.1 5.6C8.2 4.8 9.6 4.2 11 4V2M4.2 5.7C3 7.2 2.2 9.1 2 11H4C4.2 9.6 4.8 8.2 5.6 7.1L4.2 5.7M2 13C2.2 14.9 3 16.8 4.2 18.3L5.6 16.9C4.8 15.8 4.2 14.4 4 13H2M7.1 18.4L5.7 19.8C7.2 21 9.1 21.8 11 22V20C9.6 19.8 8.2 19.2 7.1 18.4M12 8V10H15V11H14C12.9 11 12 11.9 12 13V16H17V14H14V13H15C16.1 13 17 12.1 17 11V10C17 8.9 16.1 8 15 8H12M7 8V10H8V16H10V8H7Z" /></svg>
